public/image/projects/btn.svg

<svg width="311" height="92" viewBox="0 0 311 92" fill="none" xmlns="http://www.w3.org/2000/svg">
<path d="M37 68.9293C52.5 44.4292 62 32.4934 85 18.9293C116.2 0.529266 149.667 -1.07073 162.5 0.429267C181 0.929199 214 12.4292 228 22.9292C239.145 30.3591 257.31 47.1942 266.234 61.394C269.619 66.7809 271.972 72.8791 276.506 77.342C283.254 83.9829 294.477 91.1458 309.5 91.4292C330.525 91.8259 115.6 91.5997 2.7995 91.4334C1.72952 91.4969 0.787423 91.4883 0 91.4293C0.925936 91.4306 1.85917 91.432 2.7995 91.4334C10.7884 90.9592 25.9064 86.4644 37 68.9293Z" fill="#fdfdfd"/>
</svg>

<svg xmlns="http://www.w3.org/2000/svg" fill="none" viewBox="0 0 311 92"><path fill="#fdfdfd" d="M37 68.93c15.5-24.5 25-36.44 48-50 31.2-18.4 64.67-20 77.5-18.5 18.5.5 51.5 12 65.5 22.5 11.15 7.43 29.31 24.26 38.23 38.46 3.39 5.4 5.74 11.49 10.28 15.95 6.74 6.64 17.97 13.8 32.99 14.09 21.02.4-193.9.17-306.7 0-1.07.07-2.01.06-2.8 0h2.8c7.99-.47 23.1-4.97 34.2-22.5Z"/></svg>
